X:1
T:Convent Quick Step
T:Convent Quick Step
T:Anonymous
T:To Miss Emma Wilson, by a Pupil 
T:by IMSLP - Public Domain
T:by IMSLP - Public Domain
C:Anonymous
Z:by IMSLP - Public Domain
%%score { 1 | 2 }
L:1/8
M:2/4
K:C
V:1 treble nm="Piano" snm="Pno."
V:2 bass 
V:1
!p! [Gg]([^F^f]/[Aa]/) [Gg]([Ff]/[Aa]/) | [Gg][cc']/>[dd']/ [ee'][dd']/>[cc']/ | %2
 [Bb][dd']/>[ee']/ [ff'][ee']/>[dd']/ | [cc'][Bb]/>[Aa]/ [Gg]2 | %4
 [Gg]([^F^f]/[Aa]/) [Gg]([Ff]/[Aa]/) | [Gg][cc']/>[dd']/ [ee'][dd']/>[cc']/ | %6
 [Bb]/[cc']/[dd']/[ee']/ [ff'][ee']/>[dd']/ | [cc'][ee'][cc'] z ::!f! f/>e/d/>c/ B/>A/G/>A/ | %9
{/A} G/>^F/G/>A/ G2 | f/>e/d/>c/ B/>A/G/>A/ |{/A} G/>^F/G/>A/ G2 | %12
!p! [Gg]([^F^f]/[Aa]/) [Gg]([Ff]/[Aa]/) | [Gg][cc']/>[dd']/ [ee'][dd']/>[cc']/ | %14
 [Bb][dd']/>[ee']/ [ff'][ee']/>[dd']/ | [cc'][ee'][cc'] z :|!p! ce/>d/ z2 | c/e/a/g/ gf/>e/ | %18
 d/>^c/d/>e/ f/>g/a/>b/ | c'/>d'/e'/>d'/ c' z | ce/>d/ ce/>d/ | c/e/a/g/ gf/>e/ | %22
 d/>^c/d/>e/ f/>g/a/>b/ | c'[egc'][egc'] z | ce/>d/ ce/>d/ | c/e/a/g/ gf/>e/ | %26
 d/>^c/d/>e/ f/>g/a/>b/ | c'/>d'/e'/>d'/ c' z | ce/>d/ ce/>d/ | c/e/a/g/ gf/>e/ | %30
 d/>^c/d/>e/ f/>g/a/>b/ | c'[egc'][egc'] z |]!f!{/e} d/>^c/d/>e/ d/>G/A/>B/ | c/>d/e/>d/ c2 | %34
 d/>^c/d/>e/ d/>G/A/>B/ | c/>d/e/>d/ c2 |!p! ce/>d/ ce/>d/ | c/e/a/g/ gf/>e/ | %38
!f! d/>^c/d/>e/ f/>g/a/>b/ | d'/c'/g/e/ c z |{/e} d/>^c/d/>e/ d/>G/A/>B/ | c/>d/e/>d/ c2 | %42
 d/>^c/d/>e/ d/>G/A/>B/ | c/>d/e/>d/ c2 |!p! ce/>d/ ce/>d/ | c/e/a/g/ gf/>e/ | %46
 d/>^c/d/>e/ f/>g/a/>b/ | d'/c'/g/e/ c z |] %48
V:2
 [C,C][G,CE][G,CE][G,CE] | [C,C][G,CE][G,CE][G,CE] | [G,,G,][E,G,F][E,G,F][E,G,F] | %3
 [C,C][G,CE][G,CE][G,CE] | [C,C][G,CE][G,CE][G,CE] | [C,C][G,CE][G,CE][G,CE] | %6
 [G,,G,][E,G,F][E,G,F][E,G,F] | [CE][G,,G,][C,E,G,] z :: [DF]G,[DF]G, | [CE]G,[CE]G, | %10
 [DF]G,[DF]G, | [CE]G,[CE]G, | [C,C][G,CE][G,CE][G,CE] | [C,C][G,CE][G,CE][G,CE] | %14
 [G,,G,][E,G,F][E,G,F][E,G,F] | [CE][G,,G,][C,E,G,] z :| [C,C]"^Response."[G,CE][G,CE][G,CE] | %17
 [G,CE][G,CE][G,CE][G,CE] | [G,B,F][G,B,F][G,B,F][G,B,F] | [C,C][G,CE][G,CE][G,CE] | %20
 [C,C][G,CE][G,CE][G,CE] | [G,CE][G,CE][G,CE][G,CE] | [G,B,F][G,B,F][G,B,F][G,B,F] | %23
 [CE][CE][CE] z | [C,C][G,CE][G,CE][G,CE] | [G,CE][G,CE][G,CE][G,CE] | %26
 [G,B,F][G,B,F][G,B,F][G,B,F] | [C,C][G,CE][G,CE][G,CE] | [C,C][G,CE][G,CE][G,CE] | %29
 [G,CE][G,CE][G,CE][G,CE] | [G,B,F][G,B,F][G,B,F][G,B,F] | [CE][CE][CE] z |] [B,F]G,[B,F]G, | %33
 [CE]G,[CE]G, | [B,F]G,[B,F]G, | [CE]G,[CE]G, | [C,C][G,CE][G,CE][G,CE] | %37
 [G,CE][G,CE][G,CE][G,CE] | [G,B,F][G,B,F][G,B,F][G,B,F] | [CE][CE][CE] z | [B,F]G,[B,F]G, | %41
 [CE]G,[CE]G, | [B,F]G,[B,F]G, | [CE]G,[CE]G, | [C,C][G,CE][G,CE][G,CE] | %45
 [G,CE][G,CE][G,CE][G,CE] | [G,B,F][G,B,F][G,B,F][G,B,F] | [CE][CE][CE] z |] %48

